build/images/ico/shirt.svg

<?xml version="1.0" encoding="UTF-8"?>
<svg width="32px" height="30px" viewBox="0 0 32 30" version="1.1" xmlns="http://www.w3.org/2000/svg" xmlns:xlink="http://www.w3.org/1999/xlink">
    <title>shirt-svgrepo-com-2@1x</title>
    <g id="1.-Design" stroke="none" stroke-width="1" fill="none" fill-rule="evenodd">
        <g id="Článek" transform="translate(-40, -356)" fill="#0B2A84" fill-rule="nonzero">
            <g id="Icons" transform="translate(16, 356)">
                <g id="shirt-svgrepo-com-2" transform="translate(24, 0)">
                    <path d="M16,4.28570121 C18.2052846,4.28570121 20.0472439,2.55936719 20.2665724,0.401784489 C20.2865719,0.200892244 20.0665768,0 19.8665812,0 L19.8665812,0 C19.7584292,0.000107886332 19.6512528,0.0205490766 19.5505882,0.0602676733 C19.5372552,0.0656247998 18.1439526,0.602676733 16,0.602676733 C13.8560474,0.602676733 12.4600782,0.0669640815 12.4494118,0.0602676733 C12.335797,0.0205647472 12.21638,0.00019547106 12.0960863,0 L12.0920864,0 C11.9914293,0.00535805026 11.8970344,0.0507383705 11.8297422,0.126121903 C11.76245,0.201505436 11.7277947,0.300692462 11.7334276,0.401784489 C11.956756,2.55534935 13.8000486,4.28570121 16,4.28570121 Z" id="Path"></path>
                    <path d="M31.2856622,3.87722032 L22.6665194,0.84642599 C22.5918149,0.820241992 22.5093921,0.828733501 22.4415344,0.869604805 C22.3736767,0.910476109 22.3273921,0.979506186 22.3151938,1.05803249 C21.8002219,4.15709849 19.1305832,6.42820456 16.0026666,6.42820456 C12.87475,6.42820456 10.2051113,4.15709849 9.69013943,1.05803249 C9.67829546,0.978168392 9.6312171,0.90793266 9.56200382,0.866868261 C9.49279055,0.825803862 9.40882875,0.818293158 9.33348065,0.84642599 L0.714337779,3.87722032 C0.21574522,4.05254352 -0.0799821377,4.56804337 0.0190198102,5.08927019 L1.12766198,10.9821094 C1.21523776,11.4431401 1.59134269,11.7932483 2.05564147,11.845946 L5.31423613,12.2155877 C5.59004888,12.2468274 5.79589894,12.4853444 5.78755901,12.7640236 L5.29890314,28.8956708 C5.28566568,29.3205016 5.52368527,29.7130242 5.9055564,29.8961142 C6.06090542,29.9666186 6.22975573,30.0020488 6.40021213,30 L25.5997879,30 C25.7702443,30.0020488 25.9390946,29.9666186 26.0944436,29.8961142 C26.4763147,29.7130242 26.7143343,29.3205016 26.7010969,28.8956708 L26.212441,12.7640236 C26.2041011,12.4853444 26.4099511,12.2468274 26.6857639,12.2155877 L29.9443585,11.845946 C30.4086573,11.7932483 30.7847622,11.4431401 30.872338,10.9821094 L31.9809802,5.08927019 C32.0799821,4.56804337 31.7842548,4.05254352 31.2856622,3.87722032 Z" id="Path"></path>
                </g>
            </g>
        </g>
    </g>
</svg>

<svg width="32" height="30" viewBox="0 0 32 30" xmlns="http://www.w3.org/2000/svg"><g fill="#0B2A84" fill-rule="nonzero"><path d="M16 4.286c2.205 0 4.047-1.727 4.267-3.884.02-.201-.2-.402-.4-.402a.863.863 0 00-.316.06c-.014.006-1.407.543-3.551.543S12.46.067 12.45.06a1.076 1.076 0 00-.354-.06h-.004a.379.379 0 00-.359.402C11.957 2.555 13.8 4.286 16 4.286z"/><path d="M31.286 3.877l-8.62-3.03a.266.266 0 00-.35.211c-.516 3.1-3.185 5.37-6.313 5.37-3.128 0-5.798-2.27-6.313-5.37a.268.268 0 00-.357-.212L.714 3.877C.216 4.053-.08 4.568.02 5.09l1.109 5.893c.087.461.463.811.928.864l3.258.37c.276.03.482.27.474.548l-.49 16.132c-.012.425.226.817.608 1 .155.07.324.106.494.104h19.2c.17.002.34-.033.494-.104.382-.183.62-.575.607-1l-.489-16.132a.535.535 0 01.474-.548l3.258-.37c.465-.053.84-.403.928-.864l1.109-5.893a1.072 1.072 0 00-.695-1.212z"/></g></svg>
